X: 46
T: Beatus vir
N: Derived from Mar2008-Beatus_vir.krn
C: Johannes Martini
%%abc-version 2.0
%%abcx-abcm2ps-target-version 5.9.1 (29 Sep 2008)
%%abc-creator hum2abc beta
%%abcx-conversion-date 2019/02/17 07:19:41
%%abc-edited-by Jesse Rodin
%%abc-edited-by Chris Gage 12-04-2013
%%abcx-initial-encoding-date 2014/10/06/
%%humdrum-veritas 416713355
%%humdrum-veritas-data 3298150115
%%linebreak <none>
%%barnumbers 0
L: 1/4
M: 4/2
Q: 1/2=120
%%staves {1 2}
V: 1 clef=treble
V: 2 clef=treble-8
K: C
[V:1] A4A2A2 | 
[V:2] A4c2c2 | 
[V:1] A2A2G4 | 
[V:2] c2c2B4 | 
[V:1] A2B2G2A2- | 
[V:2] c2d2B2c2 | 
[V:1] A2GFE2F2- | 
[V:2] A4G2A2- | 
[V:1] F2E4D2 | 
[V:2] AGE2F4 | 
[V:1] E8 ||  
[V:2] E8 ||  
[V:1] A4A2A2 | 
[V:2] A4c2c2 | 
[V:1] A2A2A4 | 
[V:2] c2c2c4 | 
[V:1] G2A2B2A2- | 
[V:2] B2c2d2A2 | 
[V:1] A2^G2A4 | 
[V:2] B4A4 | 
[V:1] z4A2A2 | 
[V:2] z4c2c2 | 
[V:1] A2A2A4 | 
[V:2] c2c2c4 | 
[V:1] G4A2B2 | 
[V:2] B4c2d2 | 
[V:1] G2A4GF | 
[V:2] B2c2A4 | 
[V:1] E2F4E2- | 
[V:2] G2A3GE2 | 
[V:1] E2D2E4 ||  
[V:2] F4E4 ||  
[V:1] A4A2A2 | 
[V:2] A4c2c2 | 
[V:1] A2A2A2A2 | 
[V:2] c2c2c2c2 | 
[V:1] A4G2A2 | 
[V:2] A4B2c2 | 
[V:1] B2A4^G2 | 
[V:2] d2A2B4 | 
[V:1] A4z4 | 
[V:2] A4z4 | 
[V:1] A2A2A2A2 | 
[V:2] c2c2c2c2 | 
[V:1] A2A2A4 | 
[V:2] c2c2A4 | 
[V:1] A4A2A2 | 
[V:2] c4c2c2 | 
[V:1] G4A2B2 | 
[V:2] B4c2d2 | 
[V:1] G2A4GF | 
[V:2] B2c2A4 | 
[V:1] E2F4E2- | 
[V:2] G2A3GE2 | 
[V:1] E2D2E4 ||  
[V:2] F4E4 ||  
[V:1] A4A2A2 | 
[V:2] A4c2c2 | 
[V:1] A4G2A2 | 
[V:2] c4B2c2 | 
[V:1] B2c4B2- | 
[V:2] d2e2c2d2- | 
[V:1] B2A4^G2 | 
[V:2] d2c2B4 | 
[V:1] A4z4 | 
[V:2] A4z4 | 
[V:1] A4A2A2 | 
[V:2] c4c2c2 | 
[V:1] A4G4 | 
[V:2] c4B4 | 
[V:1] A2B2G2A2- | 
[V:2] c2d2B2c2 | 
[V:1] A2GFE2F2- | 
[V:2] A4G2A2- | 
[V:1] F2E4D2 | 
[V:2] A2E2F4 | 
[V:1] E8 ||  
[V:2] E8 ||  
[V:1] A2A2A2A2 | 
[V:2] A2A2c2c2 | 
[V:1] A4A2A2 | 
[V:2] c4c2c2 | 
[V:1] A2A2A2A2 | 
[V:2] c2c2c2c2 | 
[V:1] A4G4 | 
[V:2] c4B4 | 
[V:1] G4z4 | 
[V:2] B4z4 | 
[V:1] A2A2A4 | 
[V:2] c2c2c4 | 
[V:1] A2A2A2A2 | 
[V:2] c2c2c2c2 | 
[V:1] A4G2A2 | 
[V:2] c4B2c2 | 
[V:1] B2A4^G2 | 
[V:2] d2A2B4 | 
[V:1] A4z4 | 
[V:2] A4z4 | 
[V:1] A4A2A2 | 
[V:2] c4c2c2 | 
[V:1] A2A2G4 | 
[V:2] c2c2B4 | 
[V:1] A2B2G2A2- | 
[V:2] c2d2B2c2 | 
[V:1] A2GFE2F2- | 
[V:2] A4G2A2- | 
[V:1] F2E4D2 | 
[V:2] AGE2F4 | 
[V:1] E8 ||  
[V:2] E8 ||  
[V:1] A2A2A2A2 | 
[V:2] A2A2c2c2 | 
[V:1] A4A2G2 | 
[V:2] c4A2B2 | 
[V:1] A2B4A2- | 
[V:2] c2d4c2 | 
[V:1] A2^G2A4 | 
[V:2] B4A4 | 
[V:1] z4A4 | 
[V:2] z4c4 | 
[V:1] A2A2A2A2 | 
[V:2] c2c2c2c2 | 
[V:1] A4G4 | 
[V:2] c4B4 | 
[V:1] A2B2G2A2- | 
[V:2] c2d2B2c2 | 
[V:1] A2GFE2F2- | 
[V:2] A4G2A2- | 
[V:1] F2E4D2 | 
[V:2] AGE2F4 | 
[V:1] E8 ||  
[V:2] E8 ||  
[V:1] A4A2A2 | 
[V:2] A4c2c2 | 
[V:1] A2A2A4 | 
[V:2] c2c2c4 | 
[V:1] A2A2A2A2 | 
[V:2] c2c2c2c2 | 
[V:1] A6G2 | 
[V:2] c6B2 | 
[V:1] G4z4 | 
[V:2] B4z4 | 
[V:1] A2A2A2A2 | 
[V:2] A4c2c2 | 
[V:1] G4A2B2- | 
[V:2] B4c2d2- | 
[V:1] B2A4^G2 | 
[V:2] d2c2B4 | 
[V:1] A4z4 | 
[V:2] A4z4 | 
[V:1] A4A2A2 | 
[V:2] c4c2c2 | 
[V:1] A2A2A4 | 
[V:2] c2c2c4 | 
[V:1] A4A2A2 | 
[V:2] c4c2A2 | 
[V:1] G2A2B2G2 | 
[V:2] B2c2d2B2 | 
[V:1] A2GFE2F2- | 
[V:2] A4G2A2- | 
[V:1] F2E4D2 | 
[V:2] AGE2F4 | 
[V:1] E8 ||  
[V:2] E8 ||  
[V:1] A2A2A2A2 | 
[V:2] A2A2c2c2 | 
[V:1] A4B2A2- | 
[V:2] c4d4 | 
[V:1] A2G4^F2 | 
[V:2] c2B2A4 | 
[V:1] G4z4 | 
[V:2] G4z4 | 
[V:1] A4A2A2 | 
[V:2] c4c2c2 | 
[V:1] A2A2A4 | 
[V:2] c2c2c4 | 
[V:1] A2A2A2G2 | 
[V:2] c2c2A2B2 | 
[V:1] A2B4A2- | 
[V:2] c2d4c2 | 
[V:1] A2^G2A4 | 
[V:2] B4A4 | 
[V:1] z4A4 | 
[V:2] z4c4 | 
[V:1] A2A2A4 | 
[V:2] c2c2c4 | 
[V:1] G4A2B2 | 
[V:2] B4c2d2 | 
[V:1] G2A4GF | 
[V:2] B2c2A4 | 
[V:1] E2F4E2- | 
[V:2] G2A3GE2 | 
[V:1] E2D2E4 ||  
[V:2] F4E4 ||  
[V:1] A4A2A2 | 
[V:2] A4c2c2 | 
[V:1] A2A2A4 | 
[V:2] c2c2c4 | 
[V:1] z2A2A2A2 | 
[V:2] A4c2c2 | 
[V:1] A4G4 | 
[V:2] c4B4 | 
[V:1] z4A4 | 
[V:2] z4A4 | 
[V:1] A2A2A4 | 
[V:2] c2c2c4 | 
[V:1] A2G2A2B2- | 
[V:2] A2B2c2d2- | 
[V:1] B2A4^G2 | 
[V:2] d2c2B4 | 
[V:1] A4z4 | 
[V:2] A4z4 | 
[V:1] A2A2A2A2 | 
[V:2] c2c2c2c2 | 
[V:1] A4G2A2 | 
[V:2] c4B2c2 | 
[V:1] B2G2A2GF | 
[V:2] d2B2A4 | 
[V:1] E2F4E2- | 
[V:2] G2A3GE2 | 
[V:1] E2D2E4 ||  
[V:2] F4E4 ||  
[V:1] A4A2A2 | 
[V:2] A4c2c2 | 
[V:1] A4G4 | 
[V:2] c4B4 | 
[V:1] A2B3AA2- | 
[V:2] c2d3cA2 | 
[V:1] A2^G2A4 | 
[V:2] B4A4 | 
[V:1] z4A4 | 
[V:2] z4c4 | 
[V:1] G4A2B2 | 
[V:2] B4c2d2 | 
[V:1] G2A4GF | 
[V:2] B2c2A4 | 
[V:1] E2F3EE2- | 
[V:2] G2A3GE2 | 
[V:1] E2D2E4 | 
[V:2] F4E4 | 
[V:1] A2A2A2A2 | 
[V:2] A2A2c2c2 | 
[V:1] A2A2A2A2 | 
[V:2] c2c2c2c2 | 
[V:1] A4G2A2 | 
[V:2] c4B2c2 | 
[V:1] B2A4^G2 | 
[V:2] d2A2B4 | 
[V:1] A8 ||  
[V:2] A8 ||  
[V:1] A2A2A2A2 | 
[V:2] c2c2c2c2 | 
[V:1] A4G2A2 | 
[V:2] c4B2c2 | 
[V:1] B2G2A2GF | 
[V:2] d2B2A4 | 
[V:1] E2F4E2- | 
[V:2] G2A4E2 | 
[V:1] E2D2E4 |]  
[V:2] F4E4 |]  



